Hawaii/scalable/actions/action-unavailable-symbolic.svg

<?xml version="1.0" encoding="UTF-8" standalone="no"?>
<!-- Created with Inkscape (http://www.inkscape.org/) -->

<svg
   xmlns:dc="http://purl.org/dc/elements/1.1/"
   xmlns:cc="http://creativecommons.org/ns#"
   xmlns:rdf="http://www.w3.org/1999/02/22-rdf-syntax-ns#"
   xmlns:svg="http://www.w3.org/2000/svg"
   xmlns="http://www.w3.org/2000/svg"
   xmlns:sodipodi="http://sodipodi.sourceforge.net/DTD/sodipodi-0.dtd"
   xmlns:inkscape="http://www.inkscape.org/namespaces/inkscape"
   id="svg7384"
   sodipodi:docname="action-unavailable-symbolic.svg"
   version="1.1"
   inkscape:version="0.48.4 r9939"
   height="16"
   width="16">
  <metadata
     id="metadata90">
    <rdf:RDF>
      <cc:Work
         rdf:about="">
        <dc:format>image/svg+xml</dc:format>
        <dc:type
           rdf:resource="http://purl.org/dc/dcmitype/StillImage" />
        <dc:title>Gnome Symbolic Icon Theme</dc:title>
      </cc:Work>
    </rdf:RDF>
  </metadata>
  <sodipodi:namedview
     inkscape:cy="9.4936366"
     pagecolor="#555753"
     borderopacity="1"
     showborder="false"
     inkscape:bbox-paths="false"
     guidetolerance="10"
     inkscape:object-paths="true"
     inkscape:window-width="1296"
     showguides="true"
     inkscape:object-nodes="true"
     inkscape:snap-bbox="true"
     inkscape:pageshadow="2"
     inkscape:guide-bbox="true"
     inkscape:snap-nodes="false"
     bordercolor="#666666"
     objecttolerance="10"
     id="namedview88"
     showgrid="false"
     inkscape:window-maximized="0"
     inkscape:window-x="155"
     inkscape:snap-global="true"
     inkscape:window-y="27"
     gridtolerance="10"
     inkscape:window-height="1013"
     inkscape:snap-to-guides="true"
     inkscape:current-layer="layer12"
     inkscape:snap-bbox-midpoints="false"
     inkscape:zoom="90.509668"
     inkscape:cx="10.255229"
     inkscape:snap-grids="true"
     inkscape:pageopacity="1">
    <inkscape:grid
       spacingx="1px"
       spacingy="1px"
       id="grid4866"
       empspacing="2"
       enabled="true"
       type="xygrid"
       snapvisiblegridlinesonly="true"
       visible="true" />
  </sodipodi:namedview>
  <title
     id="title9167">Gnome Symbolic Icon Theme</title>
  <defs
     id="defs7386" />
  <g
     inkscape:label="status"
     transform="translate(-219.99995,-606)"
     inkscape:groupmode="layer"
     id="layer9"
     style="display:inline" />
  <g
     inkscape:label="devices"
     transform="translate(-219.99995,-606)"
     inkscape:groupmode="layer"
     id="layer10" />
  <g
     inkscape:label="apps"
     transform="translate(-219.99995,-606)"
     inkscape:groupmode="layer"
     id="layer11" />
  <g
     inkscape:label="actions"
     transform="translate(-219.99995,-606)"
     inkscape:groupmode="layer"
     id="layer12">
    <path
       style="font-size:medium;font-style:normal;font-variant:normal;font-weight:normal;font-stretch:normal;text-indent:0;text-align:start;text-decoration:none;line-height:normal;letter-spacing:normal;word-spacing:normal;text-transform:none;direction:ltr;block-progression:tb;writing-mode:lr-tb;text-anchor:start;baseline-shift:baseline;color:#000000;fill:#bebebe;fill-opacity:1;stroke:none;stroke-width:1.97519779;marker:none;visibility:visible;display:inline;overflow:visible;enable-background:accumulate;font-family:Sans;-inkscape-font-specification:Sans"
       d="M 8 1.03125 C 4.13996 1.03125 1 4.18697 1 8.03125 C 1 11.87553 4.13996 15 8 15 C 11.86004 15 15 11.87553 15 8.03125 C 15 4.18697 11.86004 1.03125 8 1.03125 z M 8 3.03125 C 9.0732117 3.03125 10.061813 3.4015649 10.875 3.96875 L 3.9375 10.90625 C 3.3532745 10.095991 3 9.1151045 3 8.03125 C 3 5.26565 5.22305 3.03125 8 3.03125 z M 12.25 5.40625 C 12.728184 6.1712938 13.03125 7.0593764 13.03125 8.03125 C 13.03125 10.79685 10.77694 13 8 13 C 7.042944 13 6.1649106 12.70449 5.40625 12.25 L 12.25 5.40625 z "
       transform="translate(219.99995,606)"
       id="path4222" />
  </g>
  <g
     inkscape:label="places"
     transform="translate(-219.99995,-606)"
     inkscape:groupmode="layer"
     id="layer13" />
  <g
     inkscape:label="mimetypes"
     transform="translate(-219.99995,-606)"
     inkscape:groupmode="layer"
     id="layer14" />
  <g
     inkscape:label="emblems"
     transform="translate(-219.99995,-606)"
     inkscape:groupmode="layer"
     id="layer15"
     style="display:inline" />
  <g
     inkscape:label="categories"
     transform="translate(-219.99995,-606)"
     inkscape:groupmode="layer"
     id="g4953"
     style="display:inline" />
</svg>

<svg xmlns="http://www.w3.org/2000/svg" height="16" width="16"><title>Gnome Symbolic Icon Theme</title><path style="text-indent:0;text-align:start;line-height:normal;text-transform:none;block-progression:tb;-inkscape-font-specification:Sans" d="M8 1.03c-3.86 0-7 3.157-7 7C1 11.877 4.14 15 8 15s7-3.124 7-6.97c0-3.843-3.14-7-7-7zm0 2c1.073 0 2.062.372 2.875.94l-6.938 6.936A4.88 4.88 0 0 1 3 8.03c0-2.764 2.223-5 5-5zm4.25 2.376c.478.765.78 1.653.78 2.625C13.03 10.798 10.778 13 8 13c-.957 0-1.835-.296-2.594-.75l6.844-6.844z" font-weight="400" color="#000" fill="#bebebe" overflow="visible" font-family="Sans"/></svg>
